packages/dnb-ui-lib/assets/icons/refresh.svg

<svg width="16" height="16" viewBox="0 0 16 16" fill="none" xmlns="http://www.w3.org/2000/svg">
<path d="M0.680261 5.44776C0.543896 5.83888 0.750418 6.26649 1.14154 6.40286C1.53266 6.53922 1.96028 6.3327 2.09664 5.94158L0.680261 5.44776ZM14.6115 5.69467L13.9033 5.94158L13.9755 6.14877L14.1481 6.28435L14.6115 5.69467ZM15.3197 10.5522C15.456 10.1611 15.2495 9.73351 14.8584 9.59714C14.4673 9.46078 14.0397 9.6673 13.9033 10.0584L15.3197 10.5522ZM1.38845 10.3053L2.09664 10.0584L2.02442 9.85126L1.85193 9.71568L1.38845 10.3053ZM15 6V6.75C15.4142 6.75 15.75 6.41421 15.75 6H15ZM15.75 1.66667C15.75 1.25245 15.4142 0.916667 15 0.916667C14.5858 0.916667 14.25 1.25245 14.25 1.66667H15.75ZM10.6667 5.25C10.2525 5.25 9.91667 5.58579 9.91667 6C9.91667 6.41421 10.2525 6.75 10.6667 6.75V5.25ZM5.33333 10.75C5.74755 10.75 6.08333 10.4142 6.08333 10C6.08333 9.58579 5.74755 9.25 5.33333 9.25V10.75ZM1 10V9.25C0.585786 9.25 0.25 9.58579 0.25 10H1ZM0.25 14.3333C0.25 14.7475 0.585786 15.0833 1 15.0833C1.41421 15.0833 1.75 14.7475 1.75 14.3333H0.25ZM2.09664 5.94158C2.94788 3.50007 5.27051 1.75 7.99997 1.75V0.25C4.61283 0.25 1.73503 2.42247 0.680261 5.44776L2.09664 5.94158ZM7.99997 1.75C10.7294 1.75 13.0521 3.50007 13.9033 5.94158L15.3197 5.44776C14.2649 2.42247 11.3871 0.25 7.99997 0.25V1.75ZM13.9033 10.0584C13.0521 12.4999 10.7294 14.25 7.99997 14.25V15.75C11.3871 15.75 14.2649 13.5775 15.3197 10.5522L13.9033 10.0584ZM7.99997 14.25C5.27051 14.25 2.94788 12.4999 2.09664 10.0584L0.680261 10.5522C1.73503 13.5775 4.61283 15.75 7.99997 15.75V14.25ZM15.75 6V1.66667H14.25V6H15.75ZM15 5.25H10.6667V6.75H15V5.25ZM5.33333 9.25H1V10.75H5.33333V9.25ZM0.25 10V14.3333H1.75V10H0.25ZM14.1481 6.28435L14.5366 6.58969L15.4634 5.41031L15.0749 5.10498L14.1481 6.28435ZM1.85193 9.71568L1.46348 9.41035L0.536521 10.5897L0.924974 10.895L1.85193 9.71568Z" fill="black"/>
</svg>

<svg width="16" height="16" viewBox="0 0 16 16" fill="none" xmlns="http://www.w3.org/2000/svg"><path d="M.68 5.448a.75.75 0 001.417.494L.68 5.448zm13.931.247l-.708.247.072.207.173.135.463-.59zm.709 4.857a.75.75 0 00-1.417-.494l1.417.494zm-13.932-.247l.709-.247-.073-.207-.172-.135-.464.59zM15 6v.75a.75.75 0 00.75-.75H15zm.75-4.333a.75.75 0 00-1.5 0h1.5zM10.667 5.25a.75.75 0 000 1.5v-1.5zm-5.334 5.5a.75.75 0 000-1.5v1.5zM1 10v-.75a.75.75 0 00-.75.75H1zm-.75 4.333a.75.75 0 001.5 0H.25zm1.847-8.391A6.253 6.253 0 018 1.75V.25A7.753 7.753 0 00.68 5.448l1.417.494zM8 1.75c2.73 0 5.052 1.75 5.903 4.192l1.417-.494A7.753 7.753 0 008 .25v1.5zm5.903 8.308A6.253 6.253 0 018 14.25v1.5a7.753 7.753 0 007.32-5.198l-1.417-.494zM8 14.25a6.253 6.253 0 01-5.903-4.192l-1.417.494A7.753 7.753 0 008 15.75v-1.5zM15.75 6V1.667h-1.5V6h1.5zM15 5.25h-4.333v1.5H15v-1.5zm-9.667 4H1v1.5h4.333v-1.5zM.25 10v4.333h1.5V10H.25zm13.898-3.716l.389.306.926-1.18-.388-.305-.927 1.18zM1.852 9.716l-.389-.306-.926 1.18.388.305.927-1.18z" fill="#000"/></svg>
